apps/extension/src/@talisman/theme/icons/extension-button.svg

<svg width="17" height="16" viewBox="0 0 17 16" fill="none" xmlns="http://www.w3.org/2000/svg">
<path fill-rule="evenodd" clip-rule="evenodd" d="M6.9723 0.500244C5.84263 0.500244 4.92685 1.41603 4.92685 2.5457V3.22752H1.83594C1.28365 3.22752 0.835938 3.67523 0.835938 4.22752V7.3184H1.51775C2.64743 7.3184 3.56321 8.23419 3.56321 9.36386C3.56321 10.4935 2.64743 11.4093 1.51775 11.4093H0.835938V14.5002C0.835938 15.0525 1.28365 15.5002 1.83594 15.5002H4.92685V14.8184C4.92685 13.6887 5.84263 12.7729 6.9723 12.7729C8.10197 12.7729 9.01776 13.6887 9.01776 14.8184V15.5002H12.1087C12.6609 15.5002 13.1087 15.0525 13.1087 14.5002V11.4093H13.7905C14.9202 11.4093 15.8359 10.4935 15.8359 9.36386C15.8359 8.23419 14.9202 7.3184 13.7905 7.3184H13.1087V4.22752C13.1087 3.67523 12.661 3.22752 12.1087 3.22752H9.01776V2.5457C9.01776 1.41603 8.10197 0.500244 6.9723 0.500244Z" fill="#D5FF5C"/>
</svg>

<svg viewBox="0 0 17 16" fill="none" xmlns="http://www.w3.org/2000/svg">
    <path fill-rule="evenodd" clip-rule="evenodd" d="M6.972.5c-1.13 0-2.045.916-2.045 2.046v.682H1.836a1 1 0 00-1 1v3.09h.682a2.045 2.045 0 010 4.091H.836V14.5a1 1 0 001 1h3.09v-.682a2.045 2.045 0 114.092 0v.682h3.09a1 1 0 001-1v-3.09h.682a2.045 2.045 0 100-4.092h-.681v-3.09a1 1 0 00-1-1H9.018v-.682C9.018 1.416 8.102.5 6.972.5z" fill="#D5FF5C"/>
</svg>
